X: 2
T: Dalaigh 2
M: 2/4
L: 1/8
R: polka
K: A Dorian
|: eA BA | eA BA | eA BA | G2 Bd |
eA BA | eA BA | GB dB | A2 A2 :|
|: ed ef | ga g2 | ed ef | a2 g2 |
ed ef | ga ge | dB GB | A2 A2 :|
